X: 36041
T: Scarce O' Tatties
R: jig
M: 6/8
K: Adorian
A,2 E EFG|EDB, DB,G,|A,2 E EFG|EDB, A,CE|
A3 G3|F3 EB,G,|A,2 E EFG|EDB, A,3:|
|:AEG A2F|G2F FA,2|AEG A2F|G2F E3|
E3 A,3|D2F FE2|A2E EFG|1 EDB, A3:|2 EDB, A,3||

